X: 15092
T: Get Your Crap Off The Stage
R: jig
M: 6/8
K: Aminor
|:age dcA|age dcA|age dcA|ABc d2e|
age dcA|age dcA|age dcA|1 ABc A2e:|2 ABc A3||
|:B2E EEE|c2E EEE|d2d c2c|ABc A3|
B2E EEE|c2E EEE|d2d c2c|1 ABc A3:|2 ABc A2e||

